assets/gi/gi-abstract-049.svg

<svg xmlns="http://www.w3.org/2000/svg" width="100%" height="100%" viewBox="-35.84 -35.84 583.68 583.68"><path d="m491,21-99.1169,57.8687 99.1169,57.7219v-115.5906zm0,146.4344-99.1169-57.8687v115.5906l99.1169-57.7219zm0,30.6969-99.1169,57.7219 99.1169,57.8687v-115.5906zm0,146.2875-99.1169-57.575v115.5906l99.1169-58.0156zm0,30.9906-99.1169,57.7219 99.1169,57.8687v-115.5906zm-123.5741-354.4094-99.1169,57.8687 99.1169,57.7219v-115.5906zm0,146.4344-99.1169-57.8687v115.5906l99.1169-57.7219zm0,30.6969-99.1169,57.7219 99.1169,57.8687v-115.5906zm0,146.2875-99.1169-57.575v115.5906l99.1169-58.0156zm0,30.9906-99.1169,57.7219 99.1169,57.8687v-115.5906zm-123.7349-296.5406-99.1169-57.8687v115.5906l99.1169-57.7219zm0,30.6969-99.1169,57.8687 99.1169,57.7219v-115.5906zm0,146.2875-99.1169-57.7219v115.5906l99.1169-57.8687zm0,30.9906-99.1169,57.575 99.1169,58.0156v-115.5906zm0,146.2875-99.1169-57.7219v115.5906l99.1169-57.8687zm-123.5742-354.2625-99.1168-57.8687v115.5906l99.1168-57.7219zm0,30.6969-99.1168,57.8687 99.1168,57.7219v-115.5906zm0,146.2875-99.1168-57.7219v115.5906l99.1168-57.8687zm0,30.9906-99.1168,57.575 99.1168,58.0156v-115.5906zm0,146.2875-99.1168-57.7219v115.5906l99.1168-57.8687z"/></svg>

<svg xmlns="http://www.w3.org/2000/svg" width="100%" height="100%" viewBox="-35.84 -35.84 583.68 583.68"><path d="M491 21l-99.117 57.869L491 136.59V21zm0 146.434l-99.117-57.868v115.59L491 167.434zm0 30.697l-99.117 57.722L491 313.722v-115.59zm0 146.288l-99.117-57.575v115.59L491 344.42zm0 30.99l-99.117 57.722L491 491V375.41zM367.426 21l-99.117 57.869 99.117 57.722V21zm0 146.434l-99.117-57.868v115.59l99.117-57.722zm0 30.697l-99.117 57.722 99.117 57.869v-115.59zm0 146.288l-99.117-57.575v115.59l99.117-58.015zm0 30.99l-99.117 57.722L367.426 491V375.41zM243.69 78.87L144.574 21v115.59l99.117-57.721zm0 30.697l-99.117 57.868 99.117 57.722v-115.59zm0 146.287l-99.117-57.722v115.59l99.117-57.868zm0 30.99l-99.117 57.576 99.117 58.015v-115.59zm0 146.288l-99.117-57.722V491l99.117-57.869zM120.117 78.87L21 21v115.59l99.117-57.721zm0 30.697L21 167.434l99.117 57.722v-115.59zm0 146.287L21 198.131v115.59l99.117-57.868zm0 30.99L21 344.42l99.117 58.015v-115.59zm0 146.288L21 375.41V491l99.117-57.869z"/></svg>
